X: 9811
T: Denis Murphy's
R: polka
M: 2/4
K: Dmajor
|:f/g/f/e/ d/e/d/B/|AD FA|GE e>d|cB cA|
f/g/f/e/ d/e/d/B/|AD FA|GE e>f|ed d2:|
|:Af f/e/f|Bg g/f/g|Af f/e/f|g/f/e/c/ d/c/B/c/|
Af f/e/f|Ag g/f/g|fg/f/ ec/d/|ed d2:|

